icons/svgs/power-off-solid.svg

<svg width="24" height="24" viewBox="0 0 24 24" fill="none" xmlns="http://www.w3.org/2000/svg">
<path d="M13.25 3.25V12C13.25 12.7031 12.6641 13.25 12 13.25C11.2969 13.25 10.75 12.7031 10.75 12V3.25C10.75 2.58594 11.2969 2 12 2C12.6641 2 13.25 2.58594 13.25 3.25ZM7.58594 6.72656C6.0625 7.97656 5.08594 9.89062 5.08594 12C5.08594 15.8281 8.17188 18.875 11.9609 18.875C15.7891 18.875 18.8359 15.8281 18.8359 12C18.8359 9.89062 17.8984 7.97656 16.375 6.72656C15.8281 6.29688 15.7891 5.47656 16.2188 4.96875C16.6484 4.42188 17.4297 4.38281 17.9766 4.8125C20.0469 6.53125 21.375 9.10938 21.375 12C21.375 17.1953 17.1562 21.375 12 21.375C6.80469 21.375 2.625 17.1953 2.625 12C2.625 9.10938 3.91406 6.53125 5.98438 4.8125C6.53125 4.38281 7.3125 4.42188 7.74219 4.96875C8.17188 5.51562 8.13281 6.29688 7.58594 6.72656Z" fill="black"/>
</svg>

<svg xmlns="http://www.w3.org/2000/svg" width="24" height="24" fill="currentColor" class="icon-power-off-solid" viewBox="0 0 24 24">
  <mask id="a" width="20" height="20" x="2" y="2" maskUnits="userSpaceOnUse" style="mask-type:alpha">
    <path d="M13.25 3.25V12c0 .703-.586 1.25-1.25 1.25-.703 0-1.25-.547-1.25-1.25V3.25c0-.664.547-1.25 1.25-1.25.664 0 1.25.586 1.25 1.25M7.586 6.727A6.83 6.83 0 0 0 5.086 12a6.86 6.86 0 0 0 6.875 6.875A6.835 6.835 0 0 0 18.836 12c0-2.11-.938-4.023-2.461-5.273-.547-.43-.586-1.25-.156-1.758.43-.547 1.21-.586 1.758-.157 2.07 1.72 3.398 4.297 3.398 7.188 0 5.195-4.219 9.375-9.375 9.375A9.353 9.353 0 0 1 2.625 12a9.29 9.29 0 0 1 3.36-7.187c.546-.43 1.327-.391 1.757.156s.39 1.328-.156 1.758"/>
  </mask>
  <g mask="url(#a)">
    <path d="M0 0h24v24H0z"/>
  </g>
</svg>
